X: 371
T: Lesson the first.
%R:
Z: 2017 John Chambers <jc:trillian.mit.edu>
B: John Treat - "Gamut for the Fifes", 1779, p.37 #1
F: https://archive.org/details/GamutFortheFifes
M: 3/4
L: 1/16
K: G
% - - - - - - - - - - - - - - - - - - - - - - - - -
GGGG GGGG GGGG | BBBB B4 BBBB |\
dddd dddd d4 | Tg8 d4 |\
gggg g4 gggg | dddd dddd d4 |
dddd dddd dddd | TG8 D4 |\
GGGG AAAA dddd | AAAA BBBB cccc | B2AG A8 | G12 |]
% - - - - - - - - - - - - - - - - - - - - - - - - -

%%sep 1 1 500
%%sep 1 1 500

